packages/ui-icons/svg/Line/info.svg

<svg viewBox="0 0 1920 1920" version="1.1" xmlns="http://www.w3.org/2000/svg">
    <path d="M960,0 C1490.19336,0 1920,429.80664 1920,960 C1920,1490.19336 1490.19336,1920 960,1920 C429.80664,1920 0,1490.19336 0,960 C0,429.80664 429.80664,0 960,0 Z M960,101.052632 C485.616468,101.052632 101.052632,485.616468 101.052632,960 C101.052632,1434.38353 485.616468,1818.94737 960,1818.94737 C1434.38353,1818.94737 1818.94737,1434.38353 1818.94737,960 C1818.94737,485.616468 1434.38353,101.052632 960,101.052632 Z M917.925981,727.848289 C832.850893,767.480483 760.49379,835.823224 688.0817,935.746185 C677.754561,949.994799 677.337921,958.653289 687.947275,966.310501 C695.405429,971.694593 699.739386,969.972585 710.60252,958.382523 C712.056486,956.821125 712.056486,956.821125 713.5429,955.208517 C722.93419,945.038637 730.498594,936.409772 746.658213,917.643566 C800.050402,855.639118 826.129512,830.117614 866.661203,806.776798 C901.735887,786.579372 932.560677,816.262049 926.691505,854.248434 C925.044387,864.911612 922.207725,872.781713 914.899734,889.680268 C911.992799,896.402063 910.766613,899.326155 909.403692,902.909886 C896.230637,937.539248 885.135174,966.4279 861.884974,1026.76024 L860.772734,1029.6464 C853.743126,1047.88762 853.743126,1047.88762 846.719702,1066.12618 C816.270062,1145.26382 797.793166,1193.79228 778.728606,1245.11352 L777.610807,1248.12174 C772.494698,1261.87886 770.084968,1268.3694 767.422116,1275.59071 C745.577879,1334.82944 733.085403,1373.31955 723.583863,1414.25885 C722.099948,1420.62951 722.099948,1420.62951 720.595547,1427.10376 C715.242526,1450.26223 712.377516,1465.18499 710.776004,1480.52328 C708.006723,1507.04575 710.233328,1528.76418 718.56844,1547.0166 C728.0004,1567.67204 748.264714,1582.44732 771.386657,1585.80341 C809.904519,1591.39474 847.070132,1590.99741 878.901923,1583.75478 C896.815976,1579.68246 914.540226,1574.34996 931.931092,1567.81348 C982.284209,1548.88132 1030.79343,1519.34145 1077.7778,1480.29258 C1118.88834,1446.03286 1157.78567,1404.29365 1198.56562,1352.42101 C1202.12105,1347.92929 1202.12105,1347.92929 1205.66445,1343.44468 C1217.98167,1327.7385 1224.01644,1317.53696 1226.2693,1306.76185 C1228.7194,1295.06373 1218.83038,1283.2081 1210.92571,1287.17485 C1207.01936,1289.13515 1202.9326,1293.19302 1196.70597,1301.04681 C1192.25239,1306.76203 1189.83111,1309.81617 1187.4078,1312.56078 C1177.73651,1323.51061 1167.52483,1334.7181 1156.46121,1346.55902 C1138.21996,1366.07239 1119.6859,1385.16656 1092.80519,1412.34796 C1079.11486,1426.19157 1061.897,1438.29464 1043.38496,1447.39435 C1013.75561,1461.95299 987.026816,1443.6024 990.237327,1410.7594 C992.354755,1389.07756 997.607835,1366.66258 1005.46098,1344.99188 C1022.61656,1297.62521 1036.64418,1259.33303 1067.67684,1174.9441 C1081.13561,1138.34486 1086.94617,1122.53342 1094.20475,1102.74259 C1115.72323,1044.09118 1132.90091,996.875296 1149.24413,951.31811 C1169.43453,895.042892 1180.841,853.09362 1186.12199,809.774531 C1190.10912,777.101623 1181.01905,745.853304 1160.28809,724.369737 C1137.30182,700.554188 1104.60715,689.583403 1063.88904,690.064802 C1018.83606,690.600307 966.281931,705.321158 917.925981,727.848289 Z M1226.30702,339.426117 C1145.34368,307.925942 1048.19271,362.041988 1031.92524,447.75531 C1020.12956,509.87976 1043.33656,563.51547 1090.70544,585.980968 C1184.60323,630.512496 1297.29248,559.157689 1297.29724,455.155484 C1297.30201,397.30024 1272.59227,357.436618 1226.30702,339.426117 Z" stroke="none" stroke-width="1" fill-rule="evenodd"/>
</svg>

<svg viewBox="0 0 1920 1920" version="1.1" xmlns="http://www.w3.org/2000/svg">
    <path d="M960 1920C429.807 1920 0 1490.193 0 960S429.807 0 960 0s960 429.807 960 960-429.807 960-960 960zm0-101.053c474.384 0 858.947-384.563 858.947-858.947S1434.384 101.053 960 101.053 101.053 485.616 101.053 960 485.616 1818.947 960 1818.947zM917.926 727.848c-85.075 39.632-157.432 107.975-229.844 207.898-10.327 14.249-10.744 22.907-.135 30.565 7.458 5.384 11.792 3.662 22.656-7.928 1.453-1.562 1.453-1.562 2.94-3.174 9.391-10.17 16.956-18.8 33.115-37.565 53.392-62.005 79.472-87.526 120.003-110.867 35.075-20.198 65.9 9.485 60.03 47.471-1.647 10.664-4.483 18.534-11.791 35.432-2.907 6.722-4.133 9.646-5.496 13.23-13.173 34.63-24.269 63.518-47.519 123.85l-1.112 2.886c-7.03 18.242-7.03 18.242-14.053 36.48-30.45 79.138-48.927 127.666-67.991 178.988l-1.118 3.008a10180.575 10180.575 0 0 0-10.189 27.469c-21.844 59.238-34.337 97.729-43.838 138.668-1.484 6.37-1.484 6.37-2.988 12.845-5.353 23.158-8.218 38.081-9.82 53.42-2.77 26.522-.543 48.24 7.792 66.493 9.432 20.655 29.697 35.43 52.819 38.786 38.518 5.592 75.683 5.194 107.515-2.048 17.914-4.073 35.638-9.405 53.03-15.942 50.352-18.932 98.861-48.472 145.846-87.52 41.11-34.26 80.008-76 120.788-127.872 3.555-4.492 3.555-4.492 7.098-8.976 12.318-15.707 18.352-25.908 20.605-36.683 2.45-11.698-7.439-23.554-15.343-19.587-3.907 1.96-7.993 6.018-14.22 13.872-4.454 5.715-6.875 8.77-9.298 11.514-9.671 10.95-19.883 22.157-30.947 33.998-18.241 19.513-36.775 38.608-63.656 65.789-13.69 13.844-30.908 25.947-49.42 35.046-29.63 14.559-56.358-3.792-53.148-36.635 2.118-21.681 7.37-44.096 15.224-65.767 17.156-47.367 31.183-85.659 62.216-170.048 13.459-36.6 19.27-52.41 26.528-72.201 21.518-58.652 38.696-105.868 55.04-151.425 20.19-56.275 31.596-98.224 36.877-141.543 3.987-32.673-5.103-63.922-25.834-85.405-22.986-23.816-55.68-34.787-96.399-34.305-45.053.535-97.607 15.256-145.963 37.783zm308.381-388.422c-80.963-31.5-178.114 22.616-194.382 108.33-11.795 62.124 11.412 115.76 58.78 138.225 93.898 44.531 206.587-26.823 206.592-130.826.005-57.855-24.705-97.718-70.99-115.729z" stroke="none" stroke-width="1" fill-rule="evenodd"/>
</svg>
